dist/img/catalog/discount_decor_2.svg

<svg width="166" height="165" viewBox="0 0 166 165" fill="none" xmlns="http://www.w3.org/2000/svg">
<path d="M132.895 125.911C117.078 125.911 104.207 112.427 104.207 95.8571C104.207 79.2876 117.078 65.8036 132.895 65.8036H148.832V52.4464C148.832 45.08 143.114 39.0893 136.082 39.0893H129.707V25.7321C129.707 18.3657 123.989 12.375 116.957 12.375H27.707C18.2529 12.375 10.4372 19.6146 8.90716 29.0648C8.76691 29.6124 8.58203 30.1467 8.58203 30.7411V132.589C8.58203 143.636 17.1628 152.625 27.707 152.625H136.082C143.114 152.625 148.832 146.634 148.832 139.268V125.911H132.895ZM21.332 32.4107C21.332 28.7308 24.188 25.7321 27.707 25.7321H116.957V39.0893H27.707C24.188 39.0893 21.332 36.0906 21.332 32.4107Z" fill="#EDF0F6"/>
<path d="M160.382 74.25H135.632C124.716 74.25 115.832 83.5037 115.832 94.875C115.832 106.246 124.716 115.5 135.632 115.5H160.382C163.114 115.5 165.332 113.19 165.332 110.344V79.4062C165.332 76.56 163.114 74.25 160.382 74.25ZM135.632 101.75C131.989 101.75 129.032 98.67 129.032 94.875C129.032 91.08 131.989 88 135.632 88C139.275 88 142.232 91.08 142.232 94.875C142.232 98.67 139.275 101.75 135.632 101.75Z" fill="#EDF0F6"/>
</svg>

<svg width="166" height="165" viewBox="0 0 166 165" fill="none" xmlns="http://www.w3.org/2000/svg"><path d="M132.895 125.911c-15.817 0-28.688-13.484-28.688-30.054s12.871-30.053 28.688-30.053h15.937V52.446c0-7.366-5.718-13.357-12.75-13.357h-6.375V25.732c0-7.366-5.718-13.357-12.75-13.357h-89.25c-9.454 0-17.27 7.24-18.8 16.69-.14.547-.325 1.082-.325 1.676V132.59c0 11.047 8.58 20.036 19.125 20.036h108.375c7.032 0 12.75-5.991 12.75-13.357v-13.357h-15.937zm-111.563-93.5c0-3.68 2.856-6.679 6.375-6.679h89.25V39.09h-89.25c-3.519 0-6.375-2.998-6.375-6.678z" fill="#EDF0F6"/><path d="M160.382 74.25h-24.75c-10.916 0-19.8 9.254-19.8 20.625s8.884 20.625 19.8 20.625h24.75c2.732 0 4.95-2.31 4.95-5.156V79.406c0-2.846-2.218-5.156-4.95-5.156zm-24.75 27.5c-3.643 0-6.6-3.08-6.6-6.875s2.957-6.875 6.6-6.875 6.6 3.08 6.6 6.875-2.957 6.875-6.6 6.875z" fill="#EDF0F6"/></svg>
